icons/folder-open-line.svg

<svg xmlns="http://www.w3.org/2000/svg" width="24" height="24" fill="none"><g clip-path="url(#a)"><g><path fill="#121212" d="M3 21C2.73478 21 2.48043 20.8946 2.29289 20.7071C2.10536 20.5196 2 20.2652 2 20V4C2 3.73478 2.10536 3.48043 2.29289 3.29289C2.48043 3.10536 2.73478 3 3 3H10.414L12.414 5H20C20.2652 5 20.5196 5.10536 20.7071 5.29289C20.8946 5.48043 21 5.73478 21 6V9H19V7H11.586L9.586 5H4V16.998L5.5 11H22.5L20.19 20.243C20.1358 20.4592 20.011 20.6512 19.8352 20.7883C19.6595 20.9255 19.4429 21 19.22 21H3ZM19.938 13H7.062L5.562 19H18.438L19.938 13Z"/></g></g><defs><clipPath id="a"><rect width="24" height="24" fill="white"/></clipPath></defs></svg>

<svg width="24" height="24" fill="none" xmlns="http://www.w3.org/2000/svg"><g clip-path="url(#a)"><path d="M3 21a1 1 0 0 1-1-1V4a1 1 0 0 1 1-1h7.414l2 2H20a1 1 0 0 1 1 1v3h-2V7h-7.414l-2-2H4v11.998L5.5 11h17l-2.31 9.243a1 1 0 0 1-.97.757H3Zm16.938-8H7.062l-1.5 6h12.876l1.5-6Z" /></g><defs><clipPath id="a"><path fill="#fff" d="M0 0h24v24H0z"/></clipPath></defs></svg>
